svg/fluentui-system-icons/ic_fluent_filmstrip_split_32_regular.svg

<svg width="32" height="32" viewBox="0 0 32 32" fill="none" xmlns="http://www.w3.org/2000/svg">
<path d="M17 3C17 2.44772 16.5523 2 16 2C15.4477 2 15 2.44772 15 3L15 29C15 29.5523 15.4477 30 16 30C16.5523 30 17 29.5523 17 29L17 3ZM6.5 4H13.5V6H6.5C5.11929 6 4 7.11929 4 8.5V23.5C4 24.8807 5.11929 26 6.5 26H13.5V28H6.5C4.01472 28 2 25.9853 2 23.5V8.5C2 6.01472 4.01472 4 6.5 4ZM25.5 26H18.5V28H25.5C27.9853 28 30 25.9853 30 23.5V8.5C30 6.01472 27.9853 4 25.5 4H18.5V6H25.5C26.8807 6 28 7.11929 28 8.5V23.5C28 24.8807 26.8807 26 25.5 26ZM24 9C24 8.44771 24.4477 8 25 8C25.5523 8 26 8.44771 26 9V11C26 11.5523 25.5523 12 25 12C24.4477 12 24 11.5523 24 11V9ZM25 14C24.4477 14 24 14.4477 24 15V17C24 17.5523 24.4477 18 25 18C25.5523 18 26 17.5523 26 17V15C26 14.4477 25.5523 14 25 14ZM24 21C24 20.4477 24.4477 20 25 20C25.5523 20 26 20.4477 26 21V23C26 23.5523 25.5523 24 25 24C24.4477 24 24 23.5523 24 23V21ZM7 8C6.44772 8 6 8.44771 6 9V11C6 11.5523 6.44772 12 7 12C7.55228 12 8 11.5523 8 11V9C8 8.44771 7.55228 8 7 8ZM6 15C6 14.4477 6.44772 14 7 14C7.55228 14 8 14.4477 8 15V17C8 17.5523 7.55228 18 7 18C6.44772 18 6 17.5523 6 17V15ZM7 20C6.44772 20 6 20.4477 6 21V23C6 23.5523 6.44772 24 7 24C7.55228 24 8 23.5523 8 23V21C8 20.4477 7.55228 20 7 20Z" fill="#212121"/>
</svg>

<svg xmlns="http://www.w3.org/2000/svg" width="32" height="32"><path d="M17 3a1 1 0 1 0-2 0v26a1 1 0 1 0 2 0V3ZM6.5 4h7v2h-7A2.5 2.5 0 0 0 4 8.5v15A2.5 2.5 0 0 0 6.5 26h7v2h-7A4.5 4.5 0 0 1 2 23.5v-15A4.5 4.5 0 0 1 6.5 4Zm19 22h-7v2h7a4.5 4.5 0 0 0 4.5-4.5v-15A4.5 4.5 0 0 0 25.5 4h-7v2h7A2.5 2.5 0 0 1 28 8.5v15a2.5 2.5 0 0 1-2.5 2.5ZM24 9a1 1 0 1 1 2 0v2a1 1 0 1 1-2 0V9Zm1 5a1 1 0 0 0-1 1v2a1 1 0 1 0 2 0v-2a1 1 0 0 0-1-1Zm-1 7a1 1 0 1 1 2 0v2a1 1 0 1 1-2 0v-2ZM7 8a1 1 0 0 0-1 1v2a1 1 0 1 0 2 0V9a1 1 0 0 0-1-1Zm-1 7a1 1 0 1 1 2 0v2a1 1 0 1 1-2 0v-2Zm1 5a1 1 0 0 0-1 1v2a1 1 0 1 0 2 0v-2a1 1 0 0 0-1-1Z"/></svg>
